X: 15
T: No_113_Love_Song.krn
%%abc-version 2.0
%%abcx-abcm2ps-target-version 5.9.1 (29 Sep 2008)
%%abc-creator hum2abc beta
%%abcx-conversion-date 2020/08/10 18:54:57
%%humdrum-veritas 1142890655
%%humdrum-veritas-data 1977366542
%%linebreak <none>
%%barnumbers 0
L: 1/4
M: 3/4
K: Eb clef=treble
[K:clef=treble][M:3/4]dBB ||  
[M:2/4]dc ||  
[M:3/4]dc2 | 
B3- | 
B2A ||  
[M:2/4]BA | 
F2 | 
E2- | 
E2- | 
E2 ||  
[M:3/4]cBB ||  
[M:2/4]cB | 
BA ||  
[M:3/4]F3- ||  
[M:2/4]F2 | 
FE | 
C2 | 
B,2- | 
B,2- | 
B,2 | 
B,B, | 
B,B, | 
B,B | 
G2 | 
F2- | 
FE | 
FE | 
C2 | 
B,2- | 
B,2- | 
B,2 | 
B,2 | 
c2 | 
B2- | 
BA | 
BA | 
F2 | 
E2- | 
E2- | 
E2 | 
cB | 
cB ||  
[M:3/4]BA2 ||  
[M:2/4]F2- | 
F2 | 
FE | 
C2 | 
B,2- | 
B,2- | 
B,2 | 
B,2 | 
F2 | 
E2- ||  
[M:3/4]ECE ||  
[M:2/4]C2 | 
B,2- | 
B,2- | 
B,2 |]  


